src/assets/duotone/Trash.svg

<svg width="24" height="24" viewBox="0 0 24 24"  xmlns="http://www.w3.org/2000/svg">
<path d="M21.0702 5.23C19.4602 5.07 17.8502 4.95 16.2302 4.86V4.85L16.0102 3.55C15.8602 2.63 15.6402 1.25 13.3002 1.25H10.6802C8.35016 1.25 8.13016 2.57 7.97016 3.54L7.76016 4.82C6.83016 4.88 5.90016 4.94 4.97016 5.03L2.93016 5.23C2.51016 5.27 2.21016 5.64 2.25016 6.05C2.29016 6.46 2.65016 6.76 3.07016 6.72L5.11016 6.52C10.3502 6 15.6302 6.2 20.9302 6.73C20.9602 6.73 20.9802 6.73 21.0102 6.73C21.3902 6.73 21.7202 6.44 21.7602 6.05C21.7902 5.64 21.4902 5.27 21.0702 5.23Z" />
<path opacity="0.3991" d="M19.2302 8.14C18.9902 7.89 18.6602 7.75 18.3202 7.75H5.68024C5.34024 7.75 5.00024 7.89 4.77024 8.14C4.54024 8.39 4.41024 8.73 4.43024 9.08L5.05024 19.34C5.16024 20.86 5.30024 22.76 8.79024 22.76H15.2102C18.7002 22.76 18.8402 20.87 18.9502 19.34L19.5702 9.09C19.5902 8.73 19.4602 8.39 19.2302 8.14Z" />
<path fill-rule="evenodd" clip-rule="evenodd" d="M9.58008 17C9.58008 16.5858 9.91586 16.25 10.3301 16.25H13.6601C14.0743 16.25 14.4101 16.5858 14.4101 17C14.4101 17.4142 14.0743 17.75 13.6601 17.75H10.3301C9.91586 17.75 9.58008 17.4142 9.58008 17Z" />
<path fill-rule="evenodd" clip-rule="evenodd" d="M8.75 13C8.75 12.5858 9.08579 12.25 9.5 12.25H14.5C14.9142 12.25 15.25 12.5858 15.25 13C15.25 13.4142 14.9142 13.75 14.5 13.75H9.5C9.08579 13.75 8.75 13.4142 8.75 13Z" />
</svg>

<?xml version="1.0" encoding="UTF-8"?>
<svg width="24" height="24" viewBox="0 0 24 24" xmlns="http://www.w3.org/2000/svg">
 <path d="m21.07 5.23c-1.61-0.16-3.22-0.28-4.84-0.37v-0.01l-0.22-1.3c-0.15-0.92-0.37-2.3-2.71-2.3h-2.62c-2.33 0-2.55 1.32-2.71 2.29l-0.21 1.28c-0.93 0.06-1.86 0.12-2.79 0.21l-2.04 0.2c-0.42 0.04-0.72 0.41-0.68 0.82s0.4 0.71 0.82 0.67l2.04-0.2c5.24-0.52 10.52-0.32 15.82 0.21h0.08c0.38 0 0.71-0.29 0.75-0.68 0.03-0.41-0.27-0.78-0.69-0.82z"/>
 <path d="m19.23 8.14c-0.24-0.25-0.57-0.39-0.91-0.39h-12.64c-0.34 0-0.68 0.14-0.91 0.39s-0.36 0.59-0.34 0.94l0.62 10.26c0.11 1.52 0.25 3.42 3.74 3.42h6.42c3.49 0 3.63-1.89 3.74-3.42l0.62-10.25c0.02-0.36-0.11-0.7-0.34-0.95z" opacity=".3991"/>
 <path d="m9.5801 17c0-0.4142 0.33578-0.75 0.75002-0.75h3.33c0.4142 0 0.75 0.3358 0.75 0.75s-0.3358 0.75-0.75 0.75h-3.33c-0.41424 0-0.75002-0.3358-0.75002-0.75z" clip-rule="evenodd" fill-rule="evenodd"/>
 <path d="m8.75 13c0-0.4142 0.33579-0.75 0.75-0.75h5c0.4142 0 0.75 0.3358 0.75 0.75s-0.3358 0.75-0.75 0.75h-5c-0.41421 0-0.75-0.3358-0.75-0.75z" clip-rule="evenodd" fill-rule="evenodd"/>
</svg>
